view/frontend/web/svg/flags/st.svg

<svg width="24" height="24" viewbox="0 0 20 15" viewBox="0 0 20 15" fill="none" xmlns="http://www.w3.org/2000/svg">
<g clip-path="url(#clip0_270_60806)">
<rect width="20" height="15" fill="white"/>
<path fill-rule="evenodd" clip-rule="evenodd" d="M0 0V15H20V0H0Z" fill="#FBCD17"/>
<path fill-rule="evenodd" clip-rule="evenodd" d="M0 0V5H20V0H0Z" fill="#73BE4A"/>
<path fill-rule="evenodd" clip-rule="evenodd" d="M0 10V15H20V10H0Z" fill="#73BE4A"/>
<path fill-rule="evenodd" clip-rule="evenodd" d="M0 0V15L6.25 7.5L0 0Z" fill="#C51918"/>
<path fill-rule="evenodd" clip-rule="evenodd" d="M10.6261 8.66917L9.45695 9.375L9.72363 7.99765L8.75 6.96684L10.0684 6.9111L10.6261 5.625L11.1839 6.9111H12.5L11.5286 7.99765L11.8211 9.375L10.6261 8.66917Z" fill="#272727"/>
<path fill-rule="evenodd" clip-rule="evenodd" d="M15.6261 8.66917L14.457 9.375L14.7236 7.99765L13.75 6.96684L15.0684 6.9111L15.6261 5.625L16.1839 6.9111H17.5L16.5286 7.99765L16.8211 9.375L15.6261 8.66917Z" fill="#272727"/>
</g>
<defs>
<clipPath id="clip0_270_60806">
<rect width="20" height="15" fill="white"/>
</clipPath>
</defs>
</svg>

<svg width="24" height="24" viewbox="0 0 20 15" fill="none" xmlns="http://www.w3.org/2000/svg">
  <mask id="a" maskUnits="userSpaceOnUse" x="0" y="0" width="20" height="15">
    <path fill="#fff" d="M0 0h20v15H0z"/>
  </mask>
  <g mask="url(#a)" fill-rule="evenodd" clip-rule="evenodd">
    <path d="M0 0v15h20V0H0z" fill="#FBCD17"/>
    <path d="M0 0v5h20V0H0zm0 10v5h20v-5H0z" fill="#73BE4A"/>
    <path d="M0 0v15l6.25-7.5L0 0z" fill="#C51918"/>
    <path d="M10.626 8.67l-1.169.705.267-1.377-.974-1.031 1.318-.056.558-1.286.558 1.286H12.5l-.971 1.087.292 1.377-1.195-.706zm5 0l-1.169.705.267-1.377-.974-1.031 1.318-.056.558-1.286.558 1.286H17.5l-.971 1.087.292 1.377-1.195-.706z" fill="#272727"/>
  </g>
</svg>
